; G-Code generated by Simplify3D(R) Version 4.1.2
; Feb 1, 2021 at 3:36:36 PM
; Settings Summary
;   processName,Process1
;   applyToModels,Extra,Extra(2),Extra(3),Extra(4)
;   profileName,FlashForge Creator Pro(2) (modified)
;   profileVersion,2019-02-18 15:29:59
;   baseProfile,
;   printMaterial,ABS
;   printQuality,Medium
;   printExtruders,Right Extruder Only
;   extruderName,Right Extruder,Left Extruder
;   extruderToolheadNumber,0,1
;   extruderDiameter,0.4,0.4
;   extruderAutoWidth,0,0
;   extruderWidth,0.4,0.4
;   extrusionMultiplier,1.02,1
;   extruderUseRetract,1,1
;   extruderRetractionDistance,1,1
;   extruderExtraRestartDistance,0,0
;   extruderRetractionZLift,0,0
;   extruderRetractionSpeed,1200,1200
;   extruderUseCoasting,0,0
;   extruderCoastingDistance,0.2,0.2
;   extruderUseWipe,0,0
;   extruderWipeDistance,5,5
;   primaryExtruder,0
;   layerHeight,0.2
;   topSolidLayers,5
;   bottomSolidLayers,3
;   perimeterOutlines,2
;   printPerimetersInsideOut,1
;   startPointOption,2
;   startPointOriginX,0
;   startPointOriginY,0
;   sequentialIslands,0
;   spiralVaseMode,0
;   firstLayerHeightPercentage,97
;   firstLayerWidthPercentage,110
;   firstLayerUnderspeed,0.4
;   useRaft,0
;   raftExtruder,0
;   raftTopLayers,3
;   raftBaseLayers,2
;   raftOffset,3
;   raftSeparationDistance,0.14
;   raftTopInfill,100
;   aboveRaftSpeedMultiplier,0.3
;   useSkirt,0
;   skirtExtruder,0
;   skirtLayers,1
;   skirtOutlines,12
;   skirtOffset,0
;   usePrimePillar,0
;   primePillarExtruder,999
;   primePillarWidth,12
;   primePillarLocation,7
;   primePillarSpeedMultiplier,1
;   useOozeShield,0
;   oozeShieldExtruder,999
;   oozeShieldOffset,2
;   oozeShieldOutlines,1
;   oozeShieldSidewallShape,1
;   oozeShieldSidewallAngle,30
;   oozeShieldSpeedMultiplier,1
;   infillExtruder,0
;   internalInfillPattern,Rectilinear
;   externalInfillPattern,Rectilinear
;   infillPercentage,10
;   outlineOverlapPercentage,30
;   infillExtrusionWidthPercentage,105
;   minInfillLength,1
;   infillLayerInterval,1
;   internalInfillAngles,45,-45
;   overlapInternalInfillAngles,0
;   externalInfillAngles,45,-45
;   generateSupport,1
;   supportExtruder,0
;   supportInfillPercentage,35
;   supportExtraInflation,0
;   supportBaseLayers,0
;   denseSupportExtruder,0
;   denseSupportLayers,2
;   denseSupportInfillPercentage,70
;   supportLayerInterval,1
;   supportHorizontalPartOffset,0.3
;   supportUpperSeparationLayers,1
;   supportLowerSeparationLayers,1
;   supportType,0
;   supportGridSpacing,4
;   maxOverhangAngle,45
;   supportAngles,0
;   temperatureName,Right Extruder,Left Extruder,Heated Build Platform
;   temperatureNumber,0,1,0
;   temperatureSetpointCount,1,1,2
;   temperatureSetpointLayers,1,1,1,2
;   temperatureSetpointTemperatures,240,0,110,85
;   temperatureStabilizeAtStartup,1,1,0
;   temperatureHeatedBed,0,0,1
;   fanLayers,1
;   fanSpeeds,0
;   blipFanToFullPower,0
;   adjustSpeedForCooling,1
;   minSpeedLayerTime,15
;   minCoolingSpeedSlowdown,20
;   increaseFanForCooling,0
;   minFanLayerTime,45
;   maxCoolingFanSpeed,100
;   increaseFanForBridging,1
;   bridgingFanSpeed,100
;   use5D,1
;   relativeEdistances,1
;   allowEaxisZeroing,0
;   independentExtruderAxes,1
;   includeM10123,0
;   stickySupport,1
;   applyToolheadOffsets,0
;   gcodeXoffset,0
;   gcodeYoffset,0
;   gcodeZoffset,0
;   overrideMachineDefinition,1
;   machineTypeOverride,0
;   strokeXoverride,225
;   strokeYoverride,145
;   strokeZoverride,150
;   originOffsetXoverride,112.5
;   originOffsetYoverride,72.5
;   originOffsetZoverride,0
;   homeXdirOverride,1
;   homeYdirOverride,1
;   homeZdirOverride,-1
;   flipXoverride,1
;   flipYoverride,-1
;   flipZoverride,1
;   toolheadOffsets,0,0|34,0|0,0|0,0|0,0|0,0
;   overrideFirmwareConfiguration,1
;   firmwareTypeOverride,MakerBot/Sailfish Firmware
;   GPXconfigOverride,r1d
;   baudRateOverride,115200
;   overridePrinterModels,1
;   printerModelsOverride,FlashForge_CreatorPro.stl
;   startingGcode,; **** Replicator 1 dual start.gcode ****,M73 P0 ; enable build progress,G162 X Y F3000 ; home XY maximum,G161 Z F1200 ; home Z minimum,G92 Z-5 ; set Z to -5,G1 Z0 ; move Z to 0,G161 Z F100 ; home Z slowly,M132 X Y Z A B ; recall home offsets,M135 T0 ; load right extruder offsets,G1 X-110.5 Y-72 Z30 F9000 ; move to wait position right hand side of the table,G130 X20 Y20 Z20 A20 B20 ; lower stepper Vrefs while heating,M126 S[fan_speed_pwm],M140 S[bed0_temperature] T0,M134 T0 ; stabilize bed temperature,M104 S[extruder0_temperature] T0,M133 T0 ; stabilize right extruder temperature,G130 X127 Y127 Z40 A127 B127 ; default stepper Vrefs,G92 A0 B0 ; zero extruders,M108 T0 ; right extruder,G0 X-110.5 Y-72 ; Position Nozzle,G0 Z0.6      ; Position Height,G92 E0 ; Set E to 0,G1 E4 F300 ; Extrude 4mm of filament,G92 E0 ; Set E to 0 again ,G92 A0 B0 ; zero extruders,M73 P1 ; @body (notify GPX body has started),; **** end of start.gcode ****
;   layerChangeGcode,
;   retractionGcode,
;   toolChangeGcode,
;   endingGcode,; **** Replicator 1 dual end.gcode ****,M73 P100 ; end build progress,G1 Z150 F1000 ; send Z axis to bottom of machine,M140 S0 T0 ; cool down HBP,M104 S0 T0 ; cool down right extruder,M104 S0 T1 ; cool down left extruder,M127 ; stop blower fan,G162 X Y F3000 ; home XY maximum,M18 ; disable stepper,M72 P1 ; play Ta-Da song,; **** end of end.gcode ****
;   exportFileFormat,x3g
;   celebration,0
;   celebrationSong,Random Song
;   postProcessing,
;   defaultSpeed,3000
;   outlineUnderspeed,0.6
;   solidInfillUnderspeed,0.7
;   supportUnderspeed,0.8
;   rapidXYspeed,6000
;   rapidZspeed,1200
;   minBridgingArea,10
;   bridgingExtraInflation,1
;   bridgingExtrusionMultiplier,1
;   bridgingSpeedMultiplier,0.8
;   useFixedBridgingAngle,0
;   fixedBridgingAngle,0
;   applyBridgingToPerimeters,0
;   filamentDiameters,1.75|1.75|1.75|1.75|1.75|1.75
;   filamentPricesPerKg,25|25|25|25|25|25
;   filamentDensities,1.06|1.06|1.06|1.06|1.06|1.06
;   useMinPrintHeight,0
;   minPrintHeight,0
;   useMaxPrintHeight,0
;   maxPrintHeight,0
;   useDiaphragm,0
;   diaphragmLayerInterval,50
;   robustSlicing,1
;   mergeAllIntoSolid,0
;   onlyRetractWhenCrossingOutline,1
;   retractBetweenLayers,1
;   useRetractionMinTravel,0
;   retractionMinTravel,3
;   retractWhileWiping,1
;   onlyWipeOutlines,1
;   avoidCrossingOutline,1
;   maxMovementDetourFactor,3
;   toolChangeRetractionDistance,12
;   toolChangeExtraRestartDistance,-0.5
;   toolChangeRetractionSpeed,600
;   externalThinWallType,0
;   internalThinWallType,2
;   thinWallAllowedOverlapPercentage,40
;   singleExtrusionMinLength,1
;   singleExtrusionMinPrintingWidthPercentage,50
;   singleExtrusionMaxPrintingWidthPercentage,200
;   singleExtrusionEndpointExtension,0.2
;   horizontalSizeCompensation,0
G90
M83
; **** Replicator 1 dual start.gcode ****
M73 P0 ; enable build progress
G162 X Y F3000 ; home XY maximum
G161 Z F1200 ; home Z minimum
G92 Z-5 ; set Z to -5
G1 Z0 ; move Z to 0
G161 Z F100 ; home Z slowly
M132 X Y Z A B ; recall home offsets
M135 T0 ; load right extruder offsets
G1 X-110.5 Y-72 Z30 F9000 ; move to wait position right hand side of the table
G130 X20 Y20 Z20 A20 B20 ; lower stepper Vrefs while heating
M127
M140 S110 T0
M134 T0 ; stabilize bed temperature
M104 S240 T0
M133 T0 ; stabilize right extruder temperature
G130 X127 Y127 Z40 A127 B127 ; default stepper Vrefs
G92 A0 B0 ; zero extruders
M108 T0 ; right extruder
G0 X-110.5 Y-72 ; Position Nozzle
G0 Z0.6      ; Position Height
G92 E0 ; Set E to 0
G1 E4 F300 ; Extrude 4mm of filament
G92 E0 ; Set E to 0 again 
G92 A0 B0 ; zero extruders
M73 P1 ; @body (notify GPX body has started)
; **** end of start.gcode ****
; process Process1
; layer 1, Z = 0.194
M135 T0
G1 E-1.0000 F1200
; feature inner perimeter
; tool H0.194 W0.440
G1 Z0.194 F1200
G1 X-3.160 Y-3.312 F6000
G1 E1.0000 F1200
G1 X-3.160 Y4.233 E0.2731 F960
G1 X-6.590 Y4.233 E0.1242
G1 X-6.586 Y-3.307 E0.2729
G1 X-3.160 Y-3.312 E0.1240
; feature outer perimeter
G1 X-2.720 Y-3.752 F6000
G1 X-2.720 Y4.673 E0.3050 F720
G1 X-7.031 Y4.673 E0.1560
G1 X-7.026 Y-3.747 E0.3048
G1 X-2.720 Y-3.752 E0.1559
; feature solid layer
G1 X-3.625 Y-3.003 F6000
G1 X-3.468 Y-2.846 E0.0081 F840
G1 X-3.468 Y-2.224 E0.0225
G1 X-4.247 Y-3.002 E0.0399
G1 X-4.868 Y-3.002 E0.0225
G1 X-3.468 Y-1.601 E0.0717
G1 X-3.468 Y-0.979 E0.0225
G1 X-5.490 Y-3.001 E0.1035
G1 X-6.111 Y-3.000 E0.0225
G1 X-3.468 Y-0.357 E0.1353
G1 X-3.468 Y0.266 E0.0225
G1 X-6.279 Y-2.545 E0.1439
G1 X-6.279 Y-1.923 E0.0225
G1 X-3.468 Y0.888 E0.1439
G1 X-3.468 Y1.510 E0.0225
G1 X-6.279 Y-1.301 E0.1439
G1 X-6.280 Y-0.679 E0.0225
G1 X-3.468 Y2.132 E0.1439
G1 X-3.468 Y2.755 E0.0225
G1 X-6.280 Y-0.057 E0.1439
G1 X-6.280 Y0.565 E0.0225
G1 X-3.468 Y3.377 E0.1440
G1 X-3.468 Y3.925 E0.0198
G1 X-3.542 Y3.925 E0.0027
G1 X-6.281 Y1.186 E0.1402
G1 X-6.281 Y1.808 E0.0225
G1 X-4.164 Y3.925 E0.1083
G1 X-4.787 Y3.925 E0.0225
G1 X-6.281 Y2.430 E0.0765
G1 X-6.282 Y3.052 E0.0225
G1 X-5.409 Y3.925 E0.0447
G1 X-6.031 Y3.925 E0.0225
G1 X-6.282 Y3.674 E0.0128
G1 E-1.0000 F1200
; feature inner perimeter
G1 X-7.030 Y3.731 F6000
G1 X-7.031 Y4.673
G1 X-13.220 Y4.673
G1 X-13.220 Y4.199
G1 X-13.660 Y4.233
G1 E1.0000 F1200
G1 X-17.090 Y4.233 E0.1242 F960
G1 X-17.086 Y-3.307 E0.2729
G1 X-13.660 Y-3.312 E0.1240
G1 X-13.660 Y4.233 E0.2731
; feature outer perimeter
G1 X-13.220 Y4.673 F6000
G1 X-17.531 Y4.673 E0.1560 F720
G1 X-17.526 Y-3.747 E0.3048
G1 X-13.220 Y-3.752 E0.1559
G1 X-13.220 Y4.673 E0.3050
; feature solid layer
G1 X-16.782 Y3.752 F6000
G1 X-16.610 Y3.925 E0.0088 F840
G1 X-15.987 Y3.925 E0.0225
G1 X-16.782 Y3.130 E0.0407
G1 X-16.781 Y2.509 E0.0225
G1 X-15.365 Y3.925 E0.0725
G1 X-14.743 Y3.925 E0.0225
G1 X-16.781 Y1.887 E0.1043
G1 X-16.781 Y1.265 E0.0225
G1 X-14.121 Y3.925 E0.1362
G1 X-13.968 Y3.925 E0.0055
G1 X-13.968 Y3.455 E0.0170
G1 X-16.780 Y0.643 E0.1440
G1 X-16.780 Y0.021 E0.0225
G1 X-13.968 Y2.833 E0.1440
G1 X-13.968 Y2.211 E0.0225
G1 X-16.780 Y-0.601 E0.1439
G1 X-16.779 Y-1.223 E0.0225
G1 X-13.968 Y1.588 E0.1439
G1 X-13.968 Y0.966 E0.0225
G1 X-16.779 Y-1.845 E0.1439
G1 X-16.779 Y-2.467 E0.0225
G1 X-13.968 Y0.344 E0.1439
G1 X-13.968 Y-0.278 E0.0225
G1 X-16.689 Y-3.000 E0.1393
G1 X-16.068 Y-3.001 E0.0225
G1 X-13.968 Y-0.901 E0.1075
G1 X-13.968 Y-1.523 E0.0225
G1 X-15.446 Y-3.001 E0.0757
G1 X-14.825 Y-3.002 E0.0225
G1 X-13.968 Y-2.145 E0.0439
G1 X-13.968 Y-2.767 E0.0225
G1 X-14.204 Y-3.003 E0.0121
G1 E-1.0000 F1200
; feature inner perimeter
G1 X3.914 Y-3.307 F6000
G1 E1.0000 F1200
G1 X7.340 Y-3.312 E0.1240 F960
G1 X7.340 Y4.233 E0.2731
G1 X3.910 Y4.233 E0.1242
G1 X3.914 Y-3.307 E0.2729
; feature outer perimeter
G1 X3.474 Y-3.747 F6000
G1 X7.780 Y-3.752 E0.1559 F720
G1 X7.780 Y4.673 E0.3050
G1 X3.469 Y4.673 E0.1560
G1 X3.474 Y-3.747 E0.3048
; feature solid layer
G1 X6.953 Y-3.003 F6000
G1 X7.032 Y-2.924 E0.0040 F840
G1 X7.032 Y-2.302 E0.0225
G1 X6.331 Y-3.002 E0.0359
G1 X5.710 Y-3.002 E0.0225
G1 X7.032 Y-1.680 E0.0677
G1 X7.032 Y-1.057 E0.0225
G1 X5.088 Y-3.001 E0.0995
G1 X4.467 Y-3.000 E0.0225
G1 X7.032 Y-0.435 E0.1313
G1 X7.032 Y0.187 E0.0225
G1 X4.221 Y-2.623 E0.1439
G1 X4.221 Y-2.001 E0.0225
G1 X7.032 Y0.809 E0.1439
G1 X7.032 Y1.432 E0.0225
G1 X4.221 Y-1.380 E0.1439
G1 X4.220 Y-0.758 E0.0225
G1 X7.032 Y2.054 E0.1439
G1 X7.032 Y2.676 E0.0225
G1 X4.220 Y-0.136 E0.1439
G1 X4.220 Y0.486 E0.0225
G1 X7.032 Y3.298 E0.1440
G1 X7.032 Y3.921 E0.0225
G1 X4.219 Y1.108 E0.1440
G1 X4.219 Y1.730 E0.0225
G1 X6.414 Y3.925 E0.1124
G1 X5.792 Y3.925 E0.0225
G1 X4.219 Y2.352 E0.0805
G1 X4.218 Y2.974 E0.0225
G1 X5.169 Y3.925 E0.0487
G1 X4.547 Y3.925 E0.0225
G1 X4.218 Y3.596 E0.0168
G1 E-1.0000 F1200
; feature inner perimeter
G1 X14.410 Y4.233 F6000
G1 E1.0000 F1200
G1 X14.414 Y-3.307 E0.2729 F960
G1 X17.840 Y-3.312 E0.1240
G1 X17.840 Y4.233 E0.2731
G1 X14.410 Y4.233 E0.1242
; feature outer perimeter
G1 X13.969 Y4.673 F6000
G1 X13.974 Y-3.747 E0.3048 F720
G1 X18.280 Y-3.752 E0.1559
G1 X18.280 Y4.673 E0.3050
G1 X13.969 Y4.673 E0.1560
; feature solid layer
G1 X14.718 Y3.518 F6000
G1 X15.125 Y3.925 E0.0209 F840
G1 X15.748 Y3.925 E0.0225
G1 X14.718 Y2.896 E0.0527
G1 X14.719 Y2.274 E0.0225
G1 X16.370 Y3.925 E0.0845
G1 X16.992 Y3.925 E0.0225
G1 X14.719 Y1.652 E0.1164
G1 X14.719 Y1.030 E0.0225
G1 X17.532 Y3.842 E0.1440
G1 X17.532 Y3.220 E0.0225
G1 X14.720 Y0.408 E0.1440
G1 X14.720 Y-0.214 E0.0225
G1 X17.532 Y2.598 E0.1439
G1 X17.532 Y1.976 E0.0225
G1 X14.720 Y-0.836 E0.1439
G1 X14.721 Y-1.458 E0.0225
G1 X17.532 Y1.353 E0.1439
G1 X17.532 Y0.731 E0.0225
G1 X14.721 Y-2.080 E0.1439
G1 X14.722 Y-2.702 E0.0225
G1 X17.532 Y0.109 E0.1439
G1 X17.532 Y-0.513 E0.0225
G1 X15.045 Y-3.000 E0.1273
G1 X15.667 Y-3.001 E0.0225
G1 X17.532 Y-1.136 E0.0955
G1 X17.532 Y-1.758 E0.0225
G1 X16.288 Y-3.002 E0.0637
G1 X16.910 Y-3.002 E0.0225
G1 X17.532 Y-2.380 E0.0319
G1 X17.531 Y-3.003 E0.0226
G1 E-1.0000 F1200
; layer 2, Z = 0.394
M140 S85 T0
; feature inner perimeter
; tool H0.200 W0.400
G1 Z0.394 F1200
G1 X17.900 Y-2.697 F6000
G1 E1.0000 F1200
G1 X17.900 Y4.293 E0.2371 F1689
G1 X14.892 Y4.293 E0.1021
G1 X14.893 Y-2.695 E0.2371
G1 X17.900 Y-2.697 E0.1020
; feature outer perimeter
G1 X18.300 Y-3.097 F6000
G1 X18.300 Y4.693 E0.2643 F1267
G1 X14.492 Y4.693 E0.1292
G1 X14.493 Y-3.095 E0.2642
G1 X18.300 Y-3.097 E0.1291
; feature solid layer
G1 X15.173 Y-2.162 F6000
G1 X15.426 Y-2.416 E0.0121 F1478
G1 X15.992 Y-2.416 E0.0192
G1 X15.173 Y-1.597 E0.0393
G1 X15.173 Y-1.031 E0.0192
G1 X16.558 Y-2.416 E0.0665
G1 X17.124 Y-2.417 E0.0192
G1 X15.173 Y-0.465 E0.0936
G1 X15.173 Y0.101 E0.0192
G1 X17.620 Y-2.346 E0.1174
G1 X17.620 Y-1.781 E0.0192
G1 X15.173 Y0.667 E0.1174
G1 X15.172 Y1.232 E0.0192
G1 X17.620 Y-1.215 E0.1174
G1 X17.620 Y-0.649 E0.0192
G1 X15.172 Y1.798 E0.1174
G1 X15.172 Y2.364 E0.0192
G1 X17.620 Y-0.084 E0.1174
G1 X17.620 Y0.482 E0.0192
G1 X15.172 Y2.930 E0.1174
G1 X15.172 Y3.496 E0.0192
G1 X17.620 Y1.048 E0.1175
G1 X17.620 Y1.613 E0.0192
G1 X15.221 Y4.013 E0.1151
G1 X15.786 Y4.013 E0.0192
G1 X17.620 Y2.179 E0.0880
G1 X17.620 Y2.745 E0.0192
G1 X16.352 Y4.013 E0.0608
G1 X16.918 Y4.013 E0.0192
G1 X17.620 Y3.310 E0.0337
G1 X17.620 Y3.876 E0.0192
G1 X17.483 Y4.013 E0.0066
G1 E-1.0000 F1200
; feature inner perimeter
G1 X7.400 Y4.293 F6000
G1 E1.0000 F1200
G1 X4.392 Y4.293 E0.1021 F1689
G1 X4.393 Y-2.695 E0.2371
G1 X7.400 Y-2.697 E0.1020
G1 X7.400 Y4.293 E0.2371
; feature outer perimeter
G1 X7.800 Y4.693 F6000
G1 X3.992 Y4.693 E0.1292 F1267
G1 X3.993 Y-3.095 E0.2642
G1 X7.800 Y-3.097 E0.1291
G1 X7.800 Y4.693 E0.2643
; feature solid layer
G1 X6.735 Y4.013 F6000
G1 X7.120 Y3.628 E0.0185 F1478
G1 X7.120 Y3.062 E0.0192
G1 X6.170 Y4.013 E0.0456
G1 X5.604 Y4.013 E0.0192
G1 X7.120 Y2.497 E0.0727
G1 X7.120 Y1.931 E0.0192
G1 X5.038 Y4.013 E0.0999
G1 X4.672 Y4.013 E0.0124
G1 X4.672 Y3.813 E0.0068
G1 X7.120 Y1.365 E0.1175
G1 X7.120 Y0.800 E0.0192
G1 X4.672 Y3.248 E0.1174
G1 X4.672 Y2.682 E0.0192
G1 X7.120 Y0.234 E0.1174
G1 X7.120 Y-0.332 E0.0192
G1 X4.672 Y2.116 E0.1174
G1 X4.672 Y1.550 E0.0192
G1 X7.120 Y-0.897 E0.1174
G1 X7.120 Y-1.463 E0.0192
G1 X4.673 Y0.984 E0.1174
G1 X4.673 Y0.419 E0.0192
G1 X7.120 Y-2.029 E0.1174
G1 X7.120 Y-2.417 E0.0132
G1 X6.942 Y-2.417 E0.0060
G1 X4.673 Y-0.147 E0.1089
G1 X4.673 Y-0.713 E0.0192
G1 X6.376 Y-2.416 E0.0817
G1 X5.810 Y-2.416 E0.0192
G1 X4.673 Y-1.279 E0.0546
G1 X4.673 Y-1.845 E0.0192
G1 X5.244 Y-2.416 E0.0274
G1 X4.678 Y-2.415 E0.0192
G1 X4.673 Y-2.411 E0.0002
G1 E-1.0000 F1200
; feature inner perimeter
G1 X-3.100 Y-2.697 F6000
G1 E1.0000 F1200
G1 X-3.100 Y4.293 E0.2371 F1689
G1 X-6.108 Y4.293 E0.1021
G1 X-6.107 Y-2.695 E0.2371
G1 X-3.100 Y-2.697 E0.1020
; feature outer perimeter
G1 X-2.700 Y-3.097 F6000
G1 X-2.700 Y4.693 E0.2643 F1267
G1 X-6.508 Y4.693 E0.1292
G1 X-6.507 Y-3.095 E0.2642
G1 X-2.700 Y-3.097 E0.1291
; feature solid layer
G1 X-5.827 Y-2.093 F6000
G1 X-5.504 Y-2.416 E0.0155 F1478
G1 X-4.938 Y-2.416 E0.0192
G1 X-5.827 Y-1.527 E0.0427
G1 X-5.827 Y-0.961 E0.0192
G1 X-4.372 Y-2.416 E0.0698
G1 X-3.806 Y-2.417 E0.0192
G1 X-5.827 Y-0.395 E0.0970
G1 X-5.827 Y0.170 E0.0192
G1 X-3.380 Y-2.277 E0.1174
G1 X-3.380 Y-1.711 E0.0192
